X:16
T:The Primrose Girl
N:page 15 on manuscript
M:6/8
L:1/8
K:F
F | {AB}ccc c2 d | GAB {B}A2 c/B/ | AFF FDB | FEF (AG) c/B/ | AFF BGG | cd{f}_e d2 F |
f(f/d/)(f/d/) (d/c/)(B/A/)(G/F/) | f(f/d/)(f/d/) (d/c/)(B/A/)(G/F/) | BAd cHf (B/c//d//) | {d}c2 E F2 |]

